X:233
T:Waltz
O:No 233 Wm Clarke of Feltwell
N:
M:3/8
L:1/8
K:C
e3 f/e/d/| c/e/ g e/c/| B/d/g/^f/=f/d/| (c/e/) GG|e>fe/d/|c/e/a/g/e/c/| B/d/g/f/d/B/| c2:|/!
c|A/d/g/f/d/B/|c/e/a/g/e/c/|B/d/g/f/d/B/| c/e/ GG|e>fe/d/|c/e/a/g/e/c/|B/d/g/f/d/B/| c4:||/!
K:F
A/B/| c2B| A/c/f/a/c/'a/| b/g/e/c/d/e/| f/a/g/f/e/d/| c2b| A/c/f/a/c'/a/| b/g/e/c/d/e/|f2:||

